/* XPM */
static char *be20ec896f194846fc326461ed61eb96ReaNBpg8cicMkfCo[] = {
/* columns rows colors chars-per-pixel */
"50 50 256 2 ",
"   c #060600",
".  c #140501",
"X  c #13170D",
"o  c #2E0F07",
"O  c #3B371F",
"+  c #302C16",
"@  c #163530",
"#  c #2A3829",
"$  c #333728",
"%  c #30342F",
"&  c #0E1F11",
"*  c #461605",
"=  c #541500",
"-  c #4E1004",
";  c #6E1903",
":  c #52290B",
">  c #772905",
",  c #7A3205",
"<  c #703310",
"1  c #4F3630",
"2  c #66322B",
"3  c #2A4418",
"4  c #145231",
"5  c #2A4735",
"6  c #374838",
"7  c #395838",
"8  c #2D502D",
"9  c #2D6737",
"0  c #14501C",
"q  c #6D4E17",
"w  c #494B36",
"e  c #58493A",
"r  c #445A3A",
"t  c #4B522F",
"y  c #6A4D2F",
"u  c #496535",
"i  c #766834",
"p  c #373C42",
"a  c #163D46",
"s  c #4A3D4A",
"d  c #19534B",
"f  c #284846",
"g  c #3A4B44",
"h  c #28544A",
"j  c #355747",
"k  c #325458",
"l  c #166A59",
"z  c #366547",
"x  c #296B58",
"c  c #37665A",
"v  c #307455",
"b  c #2B5C65",
"n  c #147469",
"m  c #376765",
"M  c #30756B",
"N  c #594945",
"B  c #465A48",
"V  c #46585A",
"C  c #565654",
"Z  c #4E4E47",
"A  c #6F5349",
"S  c #486547",
"D  c #456756",
"F  c #4F6F50",
"G  c #6D6C53",
"H  c #466867",
"J  c #556A66",
"K  c #477878",
"L  c #527470",
"P  c #69706C",
"I  c #605961",
"U  c #832908",
"Y  c #863608",
"T  c #943809",
"R  c #8A3B15",
"E  c #993A16",
"W  c #A93B12",
"Q  c #893A25",
"!  c #894419",
"~  c #954316",
"^  c #904A12",
"/  c #A7481B",
"(  c #AB4615",
")  c #984826",
"_  c #995527",
"`  c #8F4B31",
"'  c #A54B24",
"]  c #A94C24",
"[  c #B44D24",
"{  c #AA532B",
"}  c #B5572B",
"|  c #AA5B37",
" . c #B75B36",
".. c #AF4834",
"X. c #846C35",
"o. c #AB663C",
"O. c #B3633D",
"+. c #BC633B",
"@. c #BC6634",
"#. c #B9702E",
"$. c #C6592A",
"%. c #C55C3A",
"&. c #CC4E32",
"*. c #C2653B",
"=. c #C76739",
"-. c #D46C39",
";. c #D36B32",
":. c #D1692B",
">. c #89564D",
",. c #B05945",
"<. c #8C6C4B",
"1. c #BC6543",
"2. c #BE6B4A",
"3. c #B86743",
"4. c #BC7648",
"5. c #AD6B51",
"6. c #887669",
"7. c #C36B45",
"8. c #CB6C43",
"9. c #C36D4B",
"0. c #C76747",
"q. c #D56945",
"w. c #C5724C",
"e. c #CB734B",
"r. c #CB7748",
"t. c #D57547",
"y. c #CA7753",
"u. c #D57955",
"i. c #CE6C53",
"p. c #E3794A",
"a. c #EA764E",
"s. c #D9735C",
"d. c #79843F",
"f. c #338350",
"g. c #388A75",
"h. c #3CA473",
"j. c #528F57",
"k. c #59986A",
"l. c #4B8A73",
"z. c #669867",
"x. c #679C75",
"c. c #789875",
"v. c #72896E",
"b. c #5BA46A",
"n. c #5AB36F",
"m. c #64A86A",
"M. c #65B768",
"N. c #6AA875",
"B. c #76AB7A",
"V. c #6AB977",
"C. c #76B979",
"Z. c #76AC6A",
"A. c #5A9D5A",
"S. c #58C467",
"D. c #69C578",
"F. c #73C47A",
"G. c #76C778",
"H. c #6BCB72",
"J. c #5AC657",
"K. c #868E73",
"L. c #84A779",
"P. c #88B077",
"I. c #998C5E",
"U. c #D78459",
"Y. c #CA8258",
"T. c #E5875A",
"R. c #F48A58",
"E. c #EC814C",
"W. c #DB8865",
"Q. c #E48C67",
"!. c #F69067",
"~. c #86C87C",
"^. c #E1803B",
"/. c #4F7988",
"(. c #6B7D8D",
"). c #33908E",
"_. c #2EA896",
"`. c #3A93A5",
"'. c #3DAEA9",
"]. c #1D8D81",
"[. c #568788",
"{. c #579988",
"}. c #558A98",
"|. c #4A969A",
" X c #5A9598",
".X c #478C8E",
"XX c #66888A",
"oX c #678B96",
"OX c #669798",
"+X c #72948D",
"@X c #4BA888",
"#X c #54A896",
"$X c #66A58A",
"%X c #7BAC84",
"&X c #69B486",
"*X c #79B986",
"=X c #64A797",
"-X c #6FB298",
";X c #4B9AA8",
":X c #5A97A6",
">X c #499AB4",
",X c #5498B3",
"<X c #458EA4",
"1X c #659AA6",
"2X c #7399A6",
"3X c #6892AC",
"4X c #58A5A8",
"5X c #4BA6B8",
"6X c #57A8B7",
"7X c #5AB6B7",
"8X c #4CB1AD",
"9X c #64A9A9",
"0X c #74A7A9",
"qX c #68A5B6",
"wX c #69B8BA",
"eX c #73B2AD",
"rX c #79C885",
"tX c #72CD89",
"yX c #77C6B5",
"uX c #63D19C",
"iX c #59AAC5",
"pX c #57B7C6",
"aX c #46B1C9",
"sX c #67B9C7",
"dX c #6FB5CC",
"fX c #5DACD6",
"gX c #53D0D2",
"hX c #6DC5C9",
"jX c #6FCCD3",
"kX c #50E3D4",
"lX c #57D4E2",
"zX c #74D5E8",
"xX c #6EF0ED",
"cX c #5AEFE4",
"vX c #3FD0CB",
"bX c #8AA786",
"nX c #95A486",
"mX c #86B988",
"MX c #91B593",
"NX c #A3AF91",
"BX c #87AEB0",
"VX c #97A1A3",
"CX c #85C788",
"ZX c #83C895",
"AX c #98C798",
"SX c #89D694",
"DX c #8FD28E",
"FX c #A7C99A",
"GX c #ACCF8F",
"HX c #91CDAC",
"JX c #AACFAD",
"KX c #A2EAAB",
"LX c #8DCDCD",
"PX c #97DEDF",
"IX c #CDEAD1",
"UX c #ADBEBC",
/* pixels */
"aX>XqXoXOX.X#X#X3X3XBXoX XeX4X;X5XiX,X1XOX[.$X$X/.2X0Xl.OX X:XqX2X[.0XOXOX0XK oX@X=XOX}.,XiX>X>X6X>X",
"'.;XoXf @ h $X-XP g P H 4 $XPXyX:X1XoX/.k H [.h m K d x =XM M |.@ m OXh f XXL H &X$Xh @ b :XqXdX5X6X",
"8X9X+Xg # F nXNXN Z F 7 z B.MX+XZ C I Z X V +Xf % C X # c.B D f 5 z v.D 5 6 # B B.mX5 5 j K l.OX|.6X",
"LXOXP G v.bXFXFXA w # 9 z.c.F Z e e e e $ B c.7 1 e e A NXnXnXG %Xz.mXAXB.F 7 c.AXFXw K.c.F 5 g b  X",
"LXJ $ G L.rXrXSXUX1 8 %XZXAXJXNXO O t v.L.Z.~.~.L.8 j.V.rXF.D.M.C.C.rXrXrXC.B.CXIXJX6 bXMXc.6 # a [.",
"BXg # c.CXD.n.tXUXS 8 B.mX%XJXIX7 8 7 B.FXC.F.SXAX9 *XV.V.tXrXrXF.F.D.n.M.F.G.C.IXJXF c.*XAX%XJ m XX",
"XXV 6 c.B.rXV.D.mX*Xk.C.DXC.mXAXAXN.k.&Xx.f.g.x c h l.x l.{.x.x.CXG.F.tXtXV.D.G.*XmXmXC.V.SXJXbX$X=X",
"[.D # 7 S *XmXP.tXD.F.G.M.G.KXA.m.f.v g.M ;XPXiXwXwX8X8XjXg.l g.9 A.V.rXrXD.F.D.rXm.G.H.S.tXHXbXyX#X",
"h.tXmXMXJXrXN.ZXZXb.SXH.A.V.l.M ].|.7X6X6XjXzXfX2X:X7XjXjXwXwX;XsX).M v k.C.G.M.F.F.F.M.rX%XC 1 D XX",
"-Xl.%XJXJXrXrXrXS.G.M.b.ZX{.n 7XpXhXhX0X[.L L k N % 5 H H H 1XLX7XjXhX|.g.l.b.rXF.F.V.M.F.N.w N H oX",
"OXh B bXmXF.G.V.J.H.V.D K dXjXpX1X XL Z O o * = ; = : : o + p H l.9X4X6XhX4Xg.g.V.CXCXG.rXV.r e [.0X",
"}.H % 8 z.F.D.G.M.V.v  XdX:XdX:X% % + : < U ( -.} +.+.' U ` 2 o 1 X H LX,X;XsX).l.k.rXF.D.C.F + m [.",
"2XL B u Z.rXG.rXbX@ PXzX`.0X6 O < < Q | 9.} $.R.2.y.r.} ( R.=._ ; ` * % +X X|.PXl.v b.G.H.F.z.r x l.",
"1X@ j L.C.F.rXm.a LX5XpX4X5 : - ;.-.=.i.i.] W q.5.o.o.} W a.:.^.a.$.> = O D eX4XwXM j.rXCXG.N.bX&XHX",
"#X4 z CXC.V.B.D ).7X).2XV . _ T ;.t.=.0.y.} } !.i.4.4.4.~ p.$.t.q.p.$.} : o L :XpX;XM j.rXm.F MXHXHX",
"yX&Xz.C.CXrXk.z kX8XLXI o Q O.T =.r.7.2.y.] ( -.q.8.+._ , Q.0.0.Y.@.T ;.+.* Z oXaXPX{.9 rXN.8 %XeXeX",
"LXL 5 L.P.HX4 hXqXeX+X. < [ =.E :.t.1.4.y.) ~ E.1.w.w.| R Q. .7.=.r.> t.i.` * # BX}.PXl P CXt 6 m XX",
"LXl.8 c.CXb.l 7XsX:XV + ` u. .) -.t.7.9.w.' / R.7.e.e. .E Q.+.8.8.U.Y 8.u.,.2 + [.;XdX].F C.G C H oX",
"LX[.4 j.P.9 @XjXsX}.X y ,.u.| < -.t.+.1.1.] / E.*.8.8.} ~ T. .=.+.U.T *.q.i.q o x jXsXkXz j.A A K 2X",
"eXl.z z.CX0 9XzXhXBX. ,.i.1.y.! q.t.7.7.7.{ } p.=.8.8.*.] u.=.8.1.u./ =.8.t._ < % wXpXcXv j.A e /.0X",
".Xc L L.CX0 g.5X.XG = W $.E } U ] ] ' ' ' E E } / ] ] / T } / / _ { T / ] ] R U A XX,XgXM k.w + b [.",
"0Xl.x.bXFXv |.zX0XG U.:.p.Q.e.-.r.e.y.u.y.7.w.u.y.u.y.e.w.u.u.y.Y.e.8.u.Y.r.r.t.,.(.dXgXm k.e 7 m [.",
"oXk 5 7 Z.4 ).zX0XG r.$. .5.3.%.o.| O.+.O.o.O.O.3.3.3.O.3.O.3.O.3. .%.7.o.o.O.*.R P sXlXH x.v.x.l.0X",
"XXV @ 3 MX4 ).pX3XP ; Y > * ` ; > ; > , > > , > > > > > > > , > > ; U > ; < > ; y k.).kXm k.u 0 c {.",
"eX).C # v.5 _.lXsX1X  W a.,.,.T $.=. .3.O.E ( p. . . . .T u.}  . .O.Y } -.%.3.- @ hXdXkXx k.1 + b }.",
"LXg.Z # L.S '.zX7X4X. } R.5.5.^ -.t.8.9.7.' [ R.0.0.8.=.~ T.*.0.0.2.~ *.t.8.2.= j hXsXcXx k.A N }.qX",
"HXg.w 8 mX7 ].iX|.}.  ~ t.>.<.< -.t.7.w.w.' [ R.0.0.e.=.~ T.*.8.0.2.~ *.p.8.2.= 5 4X<XkXx j.w $ /.qX",
"JX{.v.z.KXD _.zXeX1X. / e.A G q -.-.+.2.2.' / E.1.0.8.+.T T.+.7.0.1.T @.t.=.3.= 6 wX,XcXx b.G 6 M  X",
"+XM B 9 B.5 ].zX0X2X. [ p.>.>.q -.8.*.7.9.' / E.0.9.e.+.T T.*.8.9.7.~ *.p.q.2.= g LXdXxXd b.nXv.l.=X",
"OXg.J 7 B.z _.jX X[.. [ a.>.>.< -.-.+.2.w.' / p.1.e.e.+.T T.=.8.i.w.~ *.p.q.2.= @ wX,XgXd &XNXF x {.",
"9X7XVXB c.j _.gX6X X. } T.>.<.! -.-.+.2.9.' / p.1.9.e.+.T T.=.0.i.7.T @.p.8.3.- f wX;XxXv *XnX# d .X",
"6XjXVXg F 5 _.lXjX6X  _ u.A A q -.t.*.w.y.{ [ p.0.i.u.*.T T.8.e.i.w.T *.p.q.2.= j jXdXxXd f.v.6 <XqX",
"2X[.A w r g ).pX1XL o &.2.t K.: ;.t.+.3.w.{ / E.3.y.3.+.E T.=.-.w.+./ } t.y.| : : OXqXgXx &Xv.g k oX",
"XXh 1 6 S 5 _.pXqX{.  ) s.X.I.< -.t.+.O.2.{ / E.| w.O.| T u.=.=.7.8.E %.u.1.o.= g 6X>XlXc m.L.9 c 2X",
"0XHXK.S JXJ _.PXdXeX& ! !.=.r.^ q.t.7.7.e.} } E.O.w.3.+.' T.8.t.7.u.E -.T.+.3.= d jXjXPXj j.GXA.l.HX",
".XPXNXS JXj n jX:XL o , $.[ / Y }  .{  . ./ / =.{ | | { E 8.}  .{  .T [ *.] { ; g 4X,XgXh C.FX9 v HX",
"#X@XbXB.AXj 8XhX$Xe { $.} 9. .1.[ { {  . .' /  .{ | | ' ~ +.{ {  .{ { ] } +.{ ) ` P 1XkXl tXK.5 v HX",
"-Xf.r z.AXh 8XjXeX>.a.p.O.Y.i.s.U.u.U.Q.W.y.y.U.U.u.W.y.y.W.y.U.Q.y.T.r.y.!.u.W...P LXxXl h.Z C XXJX",
"HXuX6 7 mXj _.zX XA Q ! ! E E < R , Y R Y , Y R Y U R U Y R , R R , Y > Y ~ , > ` L :XkXx k.t O v.JX",
"HXHXu 3 7 5 8XpX,X(.+ : _ W W q ) R ! ~ Y Y ! ) ~ R ) R ~ ) ! ) ! ~ , ^ _ ! R ; 8 9XiXgXc B.I.t D MX",
"9X+XC 1 P 4 '.lXlX6X  ! R.-.U.q #.t.%.u.y._ } E.2.y.U. .~ Q.w.y.u.y.~ t.=.e.5.: k LXgXzXl &XDXH.-X&X",
"#Xx 6 G NX4 #XjX,X(.o ..R.&.q.E #.E.q.0.3.! / a.1.7.U.} T e. .7.i. .T t.t.e.| = @ qX`.zXl %XB.Z.{.=X",
"9X-XJXJXAX4 l.OX(.I o R u.%.i.....a.%.%.8.'  .a.u.%.q.%.[ s.q.0.q.%.E =.q.q.| = s BX}.yXx x.J 6 m oX",
"=X$XMXAXCXb.$Xz H F 3 u d.i i : <.5.X.X.X.q q <.<.y X.X.q X.X.i X.<.q q X.X.G + X H c v j.B.bXp f XX",
"OXf 6 AXCXrX&Xb.MX*Xb.F.~.C.AXAX%XV.A.H.tXD.D.tXV.M.tXH.S.n.D.tXD.H.S.S.H.F.tXtXJXJXB.N.DX~.L.% f +X",
"oXf % bXx.V.tXKXnXS 7 z.mXmXAXFXB 8 9 k.N.B.ZXtXz.j.A.b.SXSXCXB.rXV.tXSXDXz.m.ZXKXAXu P.CXP.F w m oX",
"<Xk p $ S %XJXAXG O $ F c.bXP 8 2 1 C J 1 N K.t e e O t NXNXK.G K.L.MXnXnXA A K.SXMXw 6.G v.G 6.[.OX",
"5X}.+X% $ 7 bXMXe e C # 8 bXAX%XZ J OX/.@ Z c.8 + w 6 3 z.F j 6 8 j.x.9 S 6 6 B n.MXs 1 1 N 6.6.qX:X",
"6X5X<Xb a c {.-XV K `.).g.$XeXeXm /.;X`.H H g.K `.<X.XM K M ).>X`.4X{.d b /.<XM #X{.m f h m [.qX5X6X",
">X5X6X X/.XX=X@XXXOX6X;X.XOX-X=X[.oX6X5X(.XX{.[.;X6X:X}. X{.|.iX5X4X=Xl.}.:X:X.X@X=XoX(.XX{.}.3X5X6X"
};
