/* XPM */
static char *af1468731c804aafe21546d540b86c06jSWSAAkfbqeRyQE4[] = {
/* columns rows colors chars-per-pixel */
"50 50 256 2 ",
"   c None",
".  c #2A1910",
"X  c #193814",
"o  c #11320A",
"O  c None",
"+  c #3D291B",
"@  c #233C1C",
"#  c #312C17",
"$  c #381F23",
"%  c #382726",
"&  c #3D322E",
"*  c #37322C",
"=  c #3A3935",
"-  c #283225",
";  c #1F261E",
":  c #481B04",
">  c #561A09",
",  c #4B1E12",
"<  c #631C00",
"1  c #492707",
"2  c #49251B",
"3  c #47291B",
"4  c #512812",
"5  c #5B3619",
"6  c #503114",
"7  c #692C01",
"8  c #6A3102",
"9  c #682B17",
"0  c #643517",
"q  c #763A14",
"w  c #753706",
"e  c #482E29",
"r  c #4A362A",
"t  c #4B3E39",
"y  c #4A3936",
"u  c #553B38",
"i  c #57352A",
"p  c #643527",
"a  c #733C2B",
"s  c #135110",
"d  c #27580B",
"f  c #235E11",
"g  c #2C4911",
"h  c #076B04",
"j  c #057302",
"k  c #107109",
"l  c #196515",
"z  c #157213",
"x  c #1F4520",
"c  c #304C28",
"v  c #31722E",
"b  c #276B18",
"n  c #504B15",
"m  c #6D4707",
"M  c #4A433C",
"N  c #554538",
"B  c #5B422C",
"V  c #7A462A",
"C  c #785637",
"Z  c #6B4831",
"A  c #6C6026",
"S  c #353C44",
"D  c #4B4B4B",
"F  c #484747",
"G  c #544B49",
"H  c #58524C",
"J  c #575655",
"K  c #4D4F50",
"L  c #64544B",
"P  c #675C56",
"I  c #70534D",
"U  c #52754C",
"Y  c #776256",
"T  c #666B5B",
"R  c #696867",
"E  c #756B68",
"W  c #7B7977",
"Q  c #747568",
"!  c #8F3415",
"~  c #A43919",
"^  c #843E2B",
"/  c #963D23",
"(  c #DC3E0C",
")  c #D53E0B",
"_  c #D93E13",
"`  c #E03F11",
"'  c #B7441D",
"]  c #AA581A",
"[  c #B45418",
"{  c #B0540F",
"}  c #B8651A",
"|  c #874833",
" . c #964B35",
".. c #884C31",
"X. c #BB4B25",
"o. c #A95834",
"O. c #B65535",
"+. c #AE512B",
"@. c #A76536",
"#. c #B16D31",
"$. c #91571E",
"%. c #CA460D",
"&. c #DB4A0C",
"*. c #D9470A",
"=. c #DE5200",
"-. c #D85707",
";. c #C9461A",
":. c #D44315",
">. c #DB4412",
",. c #DC4A14",
"<. c #DA4419",
"1. c #D5491A",
"2. c #D75B16",
"3. c #C65717",
"4. c #E34C02",
"5. c #E44C0C",
"6. c #E84B06",
"7. c #E45302",
"8. c #EB5304",
"9. c #E45B01",
"0. c #E95C01",
"q. c #E4520A",
"w. c #EB530C",
"e. c #EB5C09",
"r. c #E64C14",
"t. c #E95413",
"y. c #F25010",
"u. c #DE6B0C",
"i. c #D7680A",
"p. c #DE720F",
"a. c #DA6C16",
"s. c #DF7417",
"d. c #C36617",
"f. c #E56401",
"g. c #EB6602",
"h. c #E56C03",
"j. c #ED6C02",
"k. c #E46D0B",
"l. c #EC6D0A",
"z. c #ED650C",
"x. c #F26C02",
"c. c #F26C0A",
"v. c #F46507",
"b. c #EC7103",
"n. c #ED720B",
"m. c #E57208",
"M. c #F27103",
"N. c #F2720A",
"B. c #F77308",
"V. c #E76C13",
"C. c #E37213",
"Z. c #EB7413",
"A. c #E2741C",
"S. c #EB791B",
"D. c #F67615",
"F. c #C64B25",
"G. c #D34C24",
"H. c #C9522B",
"J. c #C65732",
"K. c #D9562C",
"L. c #E45F21",
"P. c #CC7626",
"I. c #DA7924",
"U. c #C67638",
"Y. c #DD7E33",
"T. c #C6652C",
"R. c #E67C26",
"E. c #F07D27",
"W. c #875A4A",
"Q. c #B4764D",
"!. c #836A66",
"~. c #917C6A",
"^. c #976849",
"/. c #C57B4C",
"(. c #0A8A07",
"). c #09910B",
"_. c #178B16",
"`. c #0D9512",
"'. c #119111",
"]. c #248C1E",
"[. c #1F8A22",
"{. c #258523",
"}. c #2C8D2E",
"|. c #2FA72F",
" X c #508E4C",
".X c #4EB34D",
"XX c #63AA55",
"oX c #68B362",
"OX c #63A568",
"+X c #47C04F",
"@X c #EB822A",
"#X c #F78527",
"$X c #E88735",
"%X c #F68B35",
"&X c #FC9035",
"*X c #D3863E",
"=X c #958579",
"-X c #B28F74",
";X c #AD8059",
":X c #F89646",
">X c #FA9E55",
",X c #E78D47",
"<X c #FEA558",
"1X c #D6A375",
"2X c #FEAB63",
"3X c #FAAD69",
"4X c #FFB167",
"5X c #FFB573",
"6X c #FFBA7C",
"7X c #F9B579",
"8X c #EFAB72",
"9X c #FFC07F",
"0X c #877D86",
"qX c #888686",
"wX c #9D8B84",
"eX c #8B9486",
"rX c #939896",
"tX c #A49B8D",
"yX c #A4938D",
"uX c #9E99A0",
"iX c #9DA1A2",
"pX c #B5A7A6",
"aX c #B3B4AE",
"sX c #98AB95",
"dX c #C8AB90",
"fX c #FFBD84",
"gX c #F8BA88",
"hX c #C3BEB6",
"jX c #CABAAD",
"kX c #BDD1B8",
"lX c #FDC38E",
"zX c #C7C5BD",
"xX c #D0C3B3",
"cX c #C7CCC6",
"vX c #DAD1C9",
"bX c #D7D7D9",
"nX c #D7CBC8",
"mX c #E4D9D4",
"MX c #DEE8DD",
"NX c #E8E5DD",
"BX c #F0E2D9",
"VX c #DBDAE8",
"CX c #E2DDE1",
"ZX c #DEE5E4",
"AX c #E9E9EA",
"SX c None",
"DX c None",
"FX c None",
"GX c None",
"HX c None",
"JX c None",
"KX c None",
"LX c None",
"PX c None",
"IX c None",
"UX c None",
/* pixels */
"LXLXLXPXPXPXPXPXPXZXbXbXVXbXcXDXPXKXPXPXPXPXLXLXLXLXPXIXSXpXt e e y ; rXLXLXIXPXPXPXPXPXLXPXPXPXPXPX",
"LXLXPXPXPXPXPXPXLXrXLXLXLXLXLXkXLXPXPXKXPXPXIXLXLXLXPXPXE & =XN y H ; rXGXLXLXPXPXPXPXPXLXPXPXPXPXPX",
"PXPXPXPXPXPXPXLXPXeXLXLXLXLXLXLXLXLXDXPXPXPXLXLXPXLXAXR P P H t & % aXAXLXLXLXPXPXPXPXPXPXPXPXPXPXPX",
"PXPXPXPXPXLXLXLXPXeXX XX.X|.{.s s X sXcXzXFXJXPXKXPXbX; Y E y & F W HXPXPXLXKXPXPXPXPXPXPXPXPXPXPXPX",
"PXPXPXPXLXLXLXLXPXeXs XX].(._._.].}.s o @ DXJXHXPXPXCX% Y Y y ; W PXPXPXPXPXPXJXPXPXPXPXPXPXPXPXPXPX",
"PXPXPXPXLXLXLXLXPXeXo oX.X|.(.'.(._.z v v c aXPXPXrXG !.L r e aXAXPXIXPXPXIXPXPXPXPXPXPXPXPXPXPXPXPX",
"PXPXPXPXPXPXPXPXPXzXQ U .X.X|.`.(.(.'._.].s U aXPX0X$ !.u y % mXJXJXPXPXPXPXPXPXPXPXPXPXPXPXPXPXPXPX",
"PXPXPXPXPXPXPXPXPXLXFX@  XoX.X`.(.(.).`.(.].l x LXqX% u y & & vXJXFXPXPXPXPXPXPXPXPXPXPXPXPXPXPXPXPX",
"PXPXPXPXPXPXPXJXPXJXIXFXT s oX+X|.).).).'._.z l c P !.y % R LXLXLXLXLXPXPXPXPXPXPXPXPXLXPXPXPXPXPXPX",
"PXPXPXPXPXPXPXJXJXJXPXPXzXOXv }.}._._.(.(.'.j l X N L y + N tXDXLXLXLXLXPXPXPXPXPXIXPXPXPXPXPXPXPXPX",
"LXLXLXLXPXPXPXPXJXPXPXPXPXMXx s l {.[._.j h j l @ & & r 0 8 : jXIXbXAXHXPXKXPXPXPXPXPXJXLXPXPXPXPXPX",
"PXLXLXLXPXPXPXPXPXPXPXPXPXPXJXU o v {.z k h h l @ M G 3 o.U./.q 1 Z r tXPXPXPXKXPXPXIXJXPXPXPXPXPXPX",
"PXPXPXPXPXPXPXPXPXPXIXPXpXE ~.^.A n b k h k k l @ = M 1 ] R.a.{ U.Q.Q.-X~.Q cXLXLXPXPXJXJXPXPXPXPXPX",
"PXPXPXPXPXPXPXPXPXPXIXBX~.6 0 @.#.m g f f d d d @ 3 5 8 3.V.n.S.%X,X,X#.8   =XSXIXIXPXPXJXPXPXIXPXPX",
"PXPXPXPXPXPXPXPXIXPXSX. Q.gX5X,XI.P.m O O O O 1 1 1 8 P.S.z.f.m.%X%X@X%XI.*Xm B JXPXPXPXPXPXPXPXPXPX",
"PXPXPXPXPXPXPXPXPXaXI -X8X3X$XS.m.p.} @.o.@.@.o.@.] d.p.h.j.j.m.S.E.D.j.m.s.} @.C vXPXLXLXPXLXPXLXPX",
"PXPXPXPXPXPXPXIXvX~.V gX3X:Xk.j.b.h.Z.A.A.A.S.A.S.C.Z.l.l.x.x.j.j.h.j.j.j.m.p.P.7 -XvXLXLXLXLXLXLXPX",
"PXPXPXIXPXKXPXPX+ ^.fX4X$Xa.Z.j.k.n.n.f.N.B.g.x.x.x.j.j.j.x.x.x.j.x.v.v.j.b.b.C.Y.7 C JXPXLXLXLXPXPX",
"PXPXPXPXIXPXhXN -X8X2XR.A.A.i.:X2X<Xs.i.N.M.x.j.j.j.j.j.x.x.c.c.j.x.x.x.x.j.n.n.A.d.@.Z BXPXIXIXPXPX",
"PXPXPXPXPXxX=XC 8X2X%XC.p.s.$X2XfX6X:X@Xk.f.B.x.j.j.j.x.c.c.l.j.j.x.x.x.v.j.j.j.f.S.d.w -XnXPXPXPXPX",
"PXPXPXIXPXr ..6X4X@XZ.h.A.Y.5XfXgXgXlX>XI.C.n.j.x.x.x.x.j.j.j.j.j.x.x.x.v.v.j.j.x.j.V.T.< W.JXHXPXPX",
"PXPXPXzXM -X7X<XR.Z.f.h.:X5X6XfXlXgXfX5X>XR.k.j.x.x.x.j.j.j.j.j.b.j.c.c.c.x.x.x.M.x.z.2.X. .N AXPXPX",
"PXHXPXzX. dX<X#XC.k.n.k.>X6XfXgXgXgXgXfX5XI.V.c.x.x.x.x.j.j.j.j.b.b.c.c.v.x.x.x.j.f.e.*.K./ + ZXPXPX",
"PXPXPXaX+ 1X:Xu.h.j.j.k.:X6XfXgXgXgXfX5X2XA.k.j.x.x.x.x.j.j.j.j.b.n.l.c.j.j.j.j.n.9.7.w.<.~ 3 NXPXPX",
"PXIXPXxX  1X<Xi.m.j.j.N.C.$XfXgXgX6X9X<Xi.k.n.x.j.j.x.x.x.x.x.N.b.j.j.v.j.j.j.j.N.9.7.5.<.~ 4 SXPXPX",
"PXPXtX=X;X8X:Xu.b.x.x.j.l.R.,X5XfX6X:XE.n.N.j.j.j.j.j.x.x.x.x.x.j.j.j.j.j.j.b.j.z.9.7.5.,.' | !.hXPX",
"PXJXH B lX2X%Xn.j.j.M.x.c.l.i.:X<X<XR.u.n.x.j.x.x.j.j.x.x.x.x.x.x.x.j.j.j.b.N.c.c.9.4.q.1.X.@.: wXPX",
"PXPXE Z 7XI.u.j.j.x.x.x.x.x.g.Z.C.A.V.k.l.j.j.x.x.x.x.j.x.x.x.x.x.x.j.j.M.N.c.v.c.0.4.q.&.F.O.> =XPX",
"KXPXP C 5XS.j.x.x.c.x.M.g.j.x.j.n.k.k.k.l.l.c.x.x.x.x.j.j.j.x.x.x.x.b.D.N.N.x.x.9.7.4.*.&.G.+.> wXPX",
"IXPXJ B <Xn.j.x.c.x.x.x.j.j.N.D.#X#XZ.k.l.j.c.x.x.x.c.j.j.j.j.x.j.c.D.D.n.j.j.x.=.7.5.*.,.;.+.> wXPX",
"PXPXP 5 R.j.l.l.c.x.x.x.j.l.S.&XR.%X#Xl.N.j.x.x.j.j.j.j.j.j.j.j.j.Z.D.Z.k.h.j.j.7.q.r.>.>.;.O.> wXPX",
"JXPXP 0 R.j.n.l.c.x.x.x.j.h.@X%X@X@X#Xj.j.x.x.x.j.j.j.j.j.j.j.h.n.D.D.V.h.m.b.g.7.5.r.>.( G.O.> wXPX",
"JXJXP 5 R.j.j.c.c.x.x.x.x.j.Z.#X#XE.Z.l.j.j.j.j.x.j.j.j.j.j.b.N.D.c.z.l.m.m.j.0.q.r.r.) ` 1.O.> =XPX",
"JXPXR p U.C.N.x.c.j.x.x.x.j.j.n.n.l.h.j.j.j.x.x.j.j.j.j.j.m.n.D.N.j.v.c.b.h.f.7.t.*.) >._ F.o.1 yXIX",
"PXPXHXaX7 } n.x.x.j.x.c.n.j.j.j.j.j.j.b.M.M.j.j.j.j.j.j.c.c.c.N.j.j.x.c.h.f.8.8.r.,.:.;.K.~ 9 nXSXPX",
"PXPXLXhX1 #.C.x.x.j.j.l.n.b.x.x.j.x.x.M.x.b.j.j.x.j.x.c.c.c.c.j.j.j.c.v.0.7.w.y.r.<.:.;.F./ e AXPXPX",
"PXIXLXhX1 #.u.j.x.j.j.l.j.j.j.j.x.x.x.x.x.x.x.M.j.j.j.j.j.M.j.j.j.j.z.e.7.7.6.r.<.:.1.%.;.+.e UXKXPX",
"PXPXPXhX  Q.@Xf.j.j.j.j.j.j.j.j.j.j.c.c.x.x.x.x.j.j.j.j.j.b.b.b.N.g.9.7.7.8.5.( <.<.%.%.J.| . VXPXPX",
"PXPXJXNXtXV { Z.j.j.x.j.j.x.x.M.j.j.j.j.j.j.j.j.c.c.c.j.j.j.j.j.j.0.9.7.7.q.5.) :.G.1.;.! W.pXKXPXPX",
"PXIXPXPXPXY ! P.p.j.j.j.j.x.x.x.b.j.j.j.j.j.v.j.j.c.c.j.g.j.j.z.0.9.7.7.=.5.,.:.1.;.F.+.0 =XPXPXPXPX",
"PXPXLXPXPXPXdX: P.S.Z.z.j.x.g.B.j.j.b.j.j.j.j.N.c.D.v.7.7.7.7.7.7.7.=.=.*.>.:.:.;.J. ., vXPXPXPXPXPX",
"PXPXPXLXPXuXR r w { a.V.l.j.D.v.v.g.c.c.v.c.j.9.0.9.7.7.7.4.8.8.w.w.*.,.,.>.:.;.H./ p t E pXPXPXPXPX",
"PXPXPXPXPXR S D 3 m { a.k.f.z.v.v.v.v.v.v.v.0.=.9.=.7.8.7.7.8.6.6.r.( >.:.:.1.X. .p e G * =XPXPXPXPX",
"PXPXPXPXPXE F K H r 8 [ a.-.=.7.4.8.4.4.0.7.7.7.7.=.7.q.5.w.t.5.( r._ <.:.G.H.o.> u G D = qXIXPXPXPX",
"PXPXPXPXPXJ = D F t B 0 { 2.2.2.q.q.q.w.e.q.q.7.q.q.q.*.&.,.,.:.,.) :.1.G.J.^ p N M M G = qXPXPXPXPX",
"PXPXPXPXLXiXE t D D D 3 q +.[ [ 3.2.L.L.&.*.t.5.5.5.&.>.:.:.:.1.;.;.H.' !  .p e G F F F Q aXLXLXPXPX",
"JXPXJXPXLXLXaXM K D D H e , > ..o.T.J.H.;.%.>.( ( ( ( >.:.1.1.' O.Q.Q.| 2 e t D F F D D CXPXLXLXPXPX",
"JXJXJXPXLXLXIXbXD F D F D F u i 0 a 9 ! O.J.F.H.G.F.G.G.F.J.X.! ....W.Y G F F D D = R AXHXPXLXLXPXPX",
"IXPXPXPXPXPXPXPXaXE F D D D G M L r r u V | a ^ V | ^ ^ a V a Z Y H L R J F D D F W aXPXPXIXPXPXPXPX",
"IXPXPXPXPXPXPXPXPXuXF D F D K J K D K y 3 2 2 2 3 2 2 2 2 3 + t W R R R K F D D = cXPXIXPXPXPXPXPXPX"
};
