/* XPM */
static char *d6ae1237bd424b70c7b59abe502b2fa956NC3WVRbSKRvp3P[] = {
/* columns rows colors chars-per-pixel */
"50 50 256 2 ",
"   c None",
".  c black",
"X  c black",
"o  c black",
"O  c black",
"+  c black",
"@  c #020101",
"#  c #010000",
"$  c #020100",
"%  c black",
"&  c black",
"*  c black",
"=  c #010001",
"-  c #010101",
";  c #010100",
":  c #010000",
">  c #010101",
",  c #030205",
"<  c #030201",
"1  c black",
"2  c black",
"3  c #1D0913",
"4  c black",
"5  c #09040A",
"6  c black",
"7  c black",
"8  c #010203",
"9  c #0F0A06",
"0  c #020105",
"q  c #030101",
"w  c #544A3C",
"e  c black",
"r  c None",
"t  c #252352",
"y  c #A48D6F",
"u  c #0F0C20",
"i  c #462D85",
"p  c #180712",
"a  c #7D6C55",
"s  c #5BA22E",
"d  c #302218",
"f  c #1A1212",
"g  c #1F1715",
"h  c #3E2417",
"j  c #8A5234",
"k  c #3E226D",
"l  c #151C3E",
"z  c #243F0E",
"x  c #6D4128",
"c  c #0A070B",
"v  c #563312",
"b  c #5F3823",
"n  c #373B15",
"m  c #20130B",
"M  c gray62",
"N  c #2F2920",
"B  c #1B234E",
"V  c #453B2F",
"C  c #70432A",
"Z  c #1E2756",
"A  c #535353",
"S  c #0018AC",
"D  c #86E736",
"F  c black",
"G  c #4D183B",
"H  c #FFDBAC",
"J  c #852F30",
"K  c #88E834",
"L  c #3F51B6",
"P  c #FFDEAF",
"I  c #F1915C",
"U  c #020303",
"Y  c #863030",
"T  c #02ABF7",
"R  c #832D2E",
"E  c #080705",
"W  c #FCD8A9",
"Q  c #120706",
"!  c #4F47B6",
"~  c #A75F53",
"^  c #88EA37",
"/  c #3A4CAA",
"(  c #0F0E24",
")  c #01638E",
"_  c #772A2B",
"`  c #7A2B2F",
"'  c #FDD4A5",
"]  c #662335",
"[  c #FFFFFE",
"{  c #2B0E20",
"}  c #F69D69",
"|  c #722933",
" . c #16102B",
".. c #514684",
"X. c #18140E",
"o. c #22231F",
"O. c #551D38",
"+. c #A04725",
"@. c #5B1F39",
"#. c #713132",
"$. c #6237AE",
"%. c #8C382B",
"&. c #E48209",
"*. c #4356B8",
"=. c #50CE85",
"-. c #A1603D",
";. c gray84",
":. c #393124",
">. c #7D553D",
",. c #321E12",
"<. c #84E63A",
"1. c #7E2D32",
"2. c #7DE344",
"3. c #683AB8",
"4. c #7AD232",
"5. c #ACACAB",
"6. c #FAB785",
"7. c #4B2B1B",
"8. c #4D4133",
"9. c #EDCA9F",
"0. c #080F0B",
"q. c #DFBF96",
"w. c #AD5220",
"e. c #3A132C",
"r. c #0DAEE8",
"t. c #87322E",
"y. c #D97A0C",
"u. c #74DF52",
"i. c #4E43AE",
"p. c #5C41B9",
"a. c #5635A0",
"s. c #FAF8F6",
"d. c #528B21",
"f. c #40181A",
"g. c #CBD0EB",
"h. c #FAC392",
"j. c #E89564",
"k. c #623519",
"l. c #0F1E07",
"z. c #583624",
"x. c #FCD0A0",
"c. c #E38756",
"v. c #C57550",
"b. c #C9AD88",
"n. c #C3A883",
"m. c #17B2DE",
"M. c #7D9A33",
"N. c #354496",
"B. c #0AAFF0",
"V. c #808081",
"C. c #28591C",
"Z. c #283271",
"A. c #6AD95E",
"S. c #9C524A",
"D. c #DFDDDE",
"F. c #818898",
"G. c #69B22A",
"H. c #F2F3EE",
"J. c #B19473",
"K. c #F8AF7C",
"L. c #FBC797",
"P. c #E58856",
"I. c #D98255",
"U. c #71C32E",
"Y. c #E6E841",
"T. c #2DBEB9",
"R. c #B3E83B",
"E. c #953D29",
"W. c #62D76D",
"Q. c #114755",
"!. c #464BB4",
"~. c #FD9601",
"^. c #592126",
"/. c #F9DEC7",
"(. c #9199CC",
"). c #B6ED87",
"_. c #48A045",
"`. c #7A4820",
"'. c #54B356",
"]. c #BA6944",
"[. c #909090",
"{. c #C58C65",
"}. c #EEB589",
"|. c #2D1010",
" X c #D8BA92",
".X c #021B24",
"XX c #049BDB",
"oX c #45BBC0",
"OX c #A46464",
"+X c #FF9900",
"@X c #D17012",
"#X c #451636",
"$X c #989897",
"%X c #C2C2C1",
"&X c #5D2B48",
"*X c #96E544",
"=X c #CA6A15",
"-X c #F1C696",
";X c #2E3B47",
":X c #36AE8D",
">X c #007AB5",
",X c #E8E5E6",
"<X c #99694A",
"1X c #2C792C",
"2X c #937E63",
"3X c #2E4B57",
"4X c #B6BBD3",
"5X c #718BB3",
"6X c #D6A47F",
"7X c #EFA877",
"8X c #05597C",
"9X c #B8A677",
"0X c #382819",
"qX c #61C2AF",
"wX c #357AA0",
"eX c #8BCE8A",
"rX c #C6DC64",
"tX c #6B914E",
"yX c #1AB4D3",
"uX c #29A096",
"iX c #91E737",
"pX c #F59004",
"aX c #0A85B0",
"sX c #C26418",
"dX c #87A842",
"fX c #FA9302",
"gX c #9BC560",
"hX c #864E4F",
"jX c #823B40",
"kX c #71CA6D",
"lX c #909A58",
"zX c #607628",
"xX c #CEE47B",
"cX c #DFC0B1",
"vX c #C4D1C9",
"bX c #6D6CAA",
"nX c #F0E29B",
"mX c #209030",
"MX c #DA9467",
"NX c #B79698",
"BX c #A1E750",
"VX c #83312E",
"CX c gray78",
"ZX c #CA865C",
"AX c #015279",
"SX c #49BA78",
"DX c #6A523E",
"FX c #018ECB",
"GX c #015378",
"HX c #A43434",
"JX c #A4DD00",
"KX c #580F67",
"LX c #C93000",
"PX c #7D0000",
"IX c black",
"UX c #47704C",
/* pixels */
"                                X @ Q _ R ` ` ` O.#XG @.J R ` |.& 7     6 . 8                       ",
"                                X @ Q _ Y Y Y J ] O.G O.` 1.Y f.3 q ;   , F #                       ",
"                                + @ Q _ Y J J J 1.` O.G G ] J R _ 3 9 X 6 F #                       ",
"                          ; q q $ - Q _ Y J J t.+.w.| @.G ] J J VXk.v $ 5 |.g , >                   ",
"                          $ F F F F Q _ Y J J t.y.pXE.| G ] Y J %.&.y.Q |.J f.e <                   ",
"                          $ F p { E Q _ +.=Xw.Y y.~.@Xw.| ] ] ` %.&.&.f.k.=Xk.e <                   ",
"                          $ F { G p Q _ w.~.sXJ y.+X+X&.%.| G | %.&.&.@.%.~.`.e 6 + X +             ",
"                          $ F { G e.e.O.| +.E.Y y.fXw.+.t.1.` 1.t.+.+.` t.+.7.U o @ @ 5 +           ",
"                      + > # F { G G G G @.R J t.@X&.E.J J J Y J J J J Y J 1.f.Q U F . 2 X           ",
"                    % = o . F { G G G G @.J Y J %.%.J R R R R R R R R Y | O.] _ 3 . 4 O             ",
"                      7 & E p { e.e.e.G @.| 1.Y S.~ ~ ~ ~ ~ ~ ~ ~ OXOX1.] G ^.^.9 : *               ",
"                      7 & 3 G 3 F F E #XG G ] Y 6XH W W W W W W H s.D.&XG G { U 6                   ",
"                      7 & 3 G 3 U w >.O.G G jX].}.P H H H H H H H /./.~ #.{ f 1 ;                   ",
"                      7 . 3 G 3 E b.9.&XG G S.I h.H W W H H H H P P L.} -.F #                       ",
"                      O 6 5 p E E n.x.v.S.G S.I >.8.8.a W H H H H 6.MXz.,.F #                       ",
"                          , . & E n.' } v.@.~ I z.0.U :.q.9.' ' x.j.].X.U F #                       ",
"                          O = 2 E n.P ' }.I.c.I cXvX_.1Xo.>.} } j.7.o.mXC.F #                       ",
"                              # 9 y b.b.6XI I I /.H.kX_.,.>.} } j.z.:._.1XF #                       ",
"                              % O @ E E z.I I I h.P W -Xc.7XW W ' j.P.I -.F #                       ",
"                          ; $ $ 8 n C.Q.3Xj v.I h.H H x.K.h.H H W } c.-.C : <                       ",
"                          $ F F E G.u.r.>XF `.I h.P H H H H H H W } v.Q 2 %                         ",
"                  X # : : z d.d.d.4.2.=.:X) 3Xk.{.6.' H H L.K.K.7X>.v # <                           ",
"                + > c E U C.^ ^ ^ D D K W.B.8XU -.j.-X' ' }.P.P.I.,.o > %                           ",
"                1 9 y 9XG.U.D D D D D D 2.A.:X>X;X,.:.:.:.0X,.,.0Xd.s 9 1 %                         ",
"            O = g :.q.nXBX*XD D D D D D D K =.m.Q.l.l.l.l.l..X.X.XU.U.0.2 %                         ",
"            8 . y 9.H P W xX^ K K D D D D D 2.2.4.4.4.4.4.SXXXXXXXA.U.0.2 %                         ",
"        * 6 d 7.{.h.9XJ.J.lXs '.W.*XR.K D D D D <.D D D K =.T T B.=.'.0.2 %                         ",
"        < & x I I c.,.F U U F ) B.rXY.iXD D D D D D D D K =.T T T T FX0.2                           ",
"    O 8 d a J.6.<Xx d # # 2 F ) T qXeXR.R.D D D D D D D ^ '.AXGX8X5XF.>.b 1 4                       ",
"    ; . 8.W H W w . =     $ F ) T T m.Y.Y.<.<.D D <.<.<.D d.e e Q ].I I -.U #   + + + %             ",
"+ 1 f y b.H J.8.N < X     $ F ) T T r.oXoXT.=.D D u.T.uXC.z 6 6 , n k.P.I.-.b 0 0 0 0 1 +           ",
"X @ X.q.H P 2XX.$ O +     $ F ) T T T r.r.r.=.K K A.m.aXU :     X 0 m v.c.} >.X.X.X.X.f ; O         ",
"X @ X.I.K.H 9. Xw 9 ;     $ F ) T T m.A.u.u.2.D D <.u.s E :     % > < m DXx.9. Xq.q.q.y - #         ",
"+ 5 9 -.ZXL.' H w . =     $ F ) T yXT.2.K D D D D D ^ G.E :         = . 8.L.' H  Xb.H n.E 5         ",
"  + = . 7.I 6.P w . =     $ F ) B.W.<.^ ^ ^ D D D D ^ G.E :         = . 7.I 6.W 8.o.9.n.E 5         ",
"    O 1 h j <X2XV 1 >     $ F Q.wXtXM.M.M.M.gX).).).dXzXE :         * 1 h j {.6.:.E a a : ,         ",
"        < e F U ,         $ F f.#.#.#.#.#.#.NX[ s.,XhX^.U :             , U `.I 7.F F @ +           ",
"        > q $ $ ;         $ F t ............bX(.(.(.....Z.B : 4         ; q h z.X.. # < %           ",
"                      % X 8 U Z.L L L L L / / / / / L L *.Z.U 8 X %         # & & o >               ",
"                      = @ l N./ L L L p.i ( ( ( (  .a.p.L / N.l @ =         > 7 7 = +               ",
"                  % ; , u t L L L !.!.a.k o o o o c i a.!.L L t u , ; +                             ",
"                  O @ u a.i.L L L p.a.( 0 * O O O = -  .$.! L / N.u @ O                             ",
"                  O o ( $.p.! ! ! i k 0 # %       * -  .$.p.! ! i.( o *                             ",
"                  O o ( $.3.3.3.$. .- >           * -  .$.3.3.3.$. .o *                             ",
"                q 5 Z Z.i.! ! i t 5 $ X           * -  .i.! ! ! i.( o *                             ",
"            % X 2 0.N.*.*.*.L t & 4               * - ( / *.*.*./  .o > %                           ",
"            , @ A V.4Xg.g.4XF.;X& 4               * - o.F.(.g.g.g.F.r @ #                           ",
"            # F r 5.H.[ [ D.5.w & 4               * - o.$X%Xs.[ [ %X[.o.g ; O                       ",
"            # F r 5.H.[ [ [ s.r & 4               * - o.$X5.5.D.[ s.H.,XM - 8                       ",
"            # F r [.CX;.;.;.;.r & 4               * - o.V.V.V.5.;.;.;.D.[.U #                       "
};
