/* XPM */
static char *_64e7ddb40bc47af8389d8af7be5e937wbHuyqjuaLqQA8Eb[] = {
/* columns rows colors chars-per-pixel */
"50 50 73 1 ",
"  c #47704C",
". c None",
"X c #5A473E",
"o c #010101",
"O c #020202",
"+ c #4F4039",
"@ c #331B0F",
"# c gray1",
"$ c #060403",
"% c #140C07",
"& c #2F2E2D",
"* c #272321",
"= c #0E0805",
"- c black",
"; c #383636",
": c black",
"> c #343231",
", c #1F110A",
"< c #5E3111",
"1 c #5E331D",
"2 c #5E311B",
"3 c #5B311B",
"4 c #452311",
"5 c #5F331C",
"6 c #552D18",
"7 c #552F1B",
"8 c #5D321C",
"9 c #492513",
"0 c #5F341E",
"q c #4E2916",
"w c #512C19",
"e c #4A2918",
"r c #593C2E",
"t c #514540",
"y c #5D3420",
"u c #514945",
"i c #4F4B48",
"p c #5A3624",
"a c #512A17",
"s c #573F33",
"d c #4A2D1D",
"f c #3C2012",
"g c #504D4C",
"h c #573C2F",
"j c #582F19",
"k c #564238",
"l c #5A3929",
"z c #4C2714",
"x c #472412",
"c c #6F6C6A",
"v c #1A100A",
"b c #2E180D",
"n c #513628",
"m c #755D51",
"M c #66605D",
"N c #623B27",
"B c #4C3B33",
"V c #5D5856",
"C c #6C4D3D",
"Z c #797572",
"A c #644637",
"S c #422617",
"D c #5E5049",
"F c #5E4133",
"G c #463126",
"H c #443A36",
"J c #8E8B89",
"K c #2B160C",
"L c #6C554A",
"P c #817D7B",
"I c #532C18",
"U c #4D2F1E",
"Y c #0E0805",
/* pixels */
"   ;X0115j@Sqwwwwwwwwwwwwwwwwwwwwwwwwwwebq5111l*  ",
"  -&l1113fbe311111111111111111111111111wfba1110+* ",
" o&By115fbew1111111111111111111111111157efKj111h>#",
" &gs115fbew1111111111111111111111111157efKj18liH#",
" %BVA156bfe731000000000000000000000133qSbx82lVub#",
" %emPDl56b@fff4444444444444444444444fffbx1pscPnK#",
" %edDgir56qqqqqqqqqqqqqqqqqqqqqqqqqqqqqa8ytgVneb#",
" %ewqdtisrrrrrrrrrrrrrrrrrrrrrrrrrrrrrrrrtiGewqb#",
" %e33wdGuiiiiiiiiiiiicZZZZZZgiiiiiiiiiiiiHGe71wb#",
" %e358jfeddddddSddddddnnnnnddddddSSddddddfq811wK#",
" #@w8111xw77777a4777774I77774q7777z97777774j111jf=",
" $f7510aq1555519j5555143555096055589j55555j91113ev",
" $f7110qa011111431111143111096511109611111341113ev",
" $f7110qa011111x31111143111096511159j11111341113ev",
" $f7110qa011111x31111143111096511159j11111341113ev",
" $f751393111111x31111143111096511159j111111qa513ev",
" $Ghl1jx5111111x31111143111096511159j111110az5phnv",
" $Hguk+nyyy12224j181114311109651115x6228yy0p+kugiv",
" $S7ltttuuurACCFAllp884311109651llFACCCltiiuttspdv",
"-,e311jSsssuVcccMigtkkBy0000n+kkgiVccccgkssnz018w@",
"#bw111jx581plppeppruuugutttuguuukppe7pppy85Iz0157e",
"#bw111jx11111114311001ntMccgBp00115xj511110az0117e",
"#bw111jx1111111x3111114yACCN96511159j111110az0117e",
"#bw111aq1111111431111143822596511159j111111jz3117e",
"#bw111431111118x311111431110965111596111111096517e",
"#bw11143111110qa11111143111096511113x811111096557e",
"#.+ryy4j811110za0111114311109651111848111112x70p+B",
"o$HtuukCF18110za01111143111096511118481188pCFtutt.",
" $f7rsDcVkksy0za81111143111096511183411lksucMkspev",
" $f7584pphuttuBnAN28824j2222x65880ANGuttuklpx653ev",
" $f711431100lkBucDssssDmmmmmLkssskcVBksy01159653ev",
" $f71143111115zUlruiuuVMMMMMMgiuisll481111109653ev",
" $f71143111110za51yyyyx3888y97yyy183481111109653ev",
" $S71843111110za0111114311109651111848111110965yUv",
" $Dtsld8111110za0111114311109651111848111115UnrtD.",
" $fnkgikky8110za01111143111096511118481111hktgthev",
" $f71pdtgtlp80za01111143111096511118488ylsguG7y3ev",
" $f75843rstuspza01111143111096511113x1htiksy9653ev",
" $f7114318plktth5822824j2222x658228p+ttlp1859653ev",
" $f7114311111pBBssmCssDmmmmmLssFmAhsBr0111109653ev",
" $f71143111110zaltMVcZJJJMPJJPZVMDhp481111109653ev",
" *@71143111110za5yyyNNdNNyyNUpNyyy13481111109658S=",
" %I8843111110za01111843111596111118481111109653b#",
" %FFp43111110za011111431110965111184811111597lA.#",
" %XcuBh111110za011111431110965111184811111pB+MM.#",
" %eNstuul8110za0111114311109651111848118ykuttN7K#",
" %e31xpktsr00za01111143111096511118410lsktr978wb#",
" %e31431lkDZcda588882432222965888834LZMury5965wb#",
" %f7143111yFu+nhhhhhhGAmmmLnhhhhhhhBukNy110963ev#",
"  :YSj43111110ntgggggggVcccMggggggggGp8111109Iqv=;"
};
